X:1
T:Title
%%score [ ( 1 2 ) ( 3 4 ) ]
L:1/8
Q:1/4=100
M:4/4
K:F
V:1 treble nm="Midi_20" snm=" "
V:2 treble 
V:3 bass nm="Midi_20"
V:4 bass 
V:1
"^Come, thou holy Paraclete""^Samuel Webbe\n(1740-1816)""^John Mason Neale\n(1818-1866)""^Veni Sancte Spiritus (777. 777)" F2 F2 F2 G2 | %1
 A3 G F4 | G2 A2 G2 c2 | c2 =B2 c4 | d2 c2 B2 A2 | G3 F F4 ||[M:4/4] F2 B2 A2 Bc | d2 c2 B4 | %8
 A2 c2 B2 A2 | G2 F2 E4 | G2 B2 A2 G2 | F2 E2 F4 |] %12
V:2
 F2 F2 F2 F2 | F2 E2 F4 | C2 F2 G2 G2 | G2 GF E4 | F2 F2 FE F2 | F2 E2 F4 ||[M:4/4] F2 F2 _E2 F2 | %7
 F2 _E2 D4 | F2 C2 DE F2 | D2 D2 C4 | E2 FG F2 D2 | C3 B, A,4 |] %12
V:3
 A,2 D2 C2 D2 | C2 B,2 A,4 | C2 C2 C2 E2 | D2 D2 C4 | B,2 C2 DB, C2 | C2 B,2 A,4 || %6
[M:4/4]"^1. Come, thou holy Paraclete,\nAnd from thy celestial seat\nShed thy light and brilliancy.\nFather of the poor, draw near,\nGiver of all gifts, be here;\nCome, the soul's true radiancy.\n\n2. Come, of comforters the best,\nOf the soul the sweetest guest,\nCome in toil refreshingly.\nThou in labour, rest most sweet,\nThou art shadow from the heat,\nComfort in adversity.\n\n3. O thou Light, most pure and blest,\nShine within the inmost breast\nOf thy faithful company.\nWhere thou art not, man hath nought;\nEvery holy deed and thought\nComes from thy divinity." B,2 B,2 C2 DC | %7
 B,2 A,2 B,4 | C2 A,2 B,2 C2 | %9
"^4. What is soilèd, make thou pure;\nWhat is wounded, work its cure;\nWhat is parchèd, fructify;\nWhat is rigid, gently bend;\nWhat is frozen, warmly tend;\nStraighten what goes erringly.\n\n5. Fill thy faithful, who confide\nIn thy power to guard and guide,\nWith thy sevenfold mystery.\nHere, thy grace and virtue send;\nGrant salvation in the end,\nAnd in heaven, felicity." D2 B,2 G,4 | %10
 G,2 DC C2 B,2 | A,2 G,2 F,4 |] %12
V:4
 F,2 B,,2 A,,2 B,,2 | C,2 C,2 F,4 | E,2 F,2 E,2 C,2 | G,2 G,2 C,4 | B,2 A,2 G,2 F,2 | %5
 C,2 C,2 F,,4 ||[M:4/4] D,2 D,2 C,2 B,,2 | F,2 F,2 B,,4 | F,2 A,2 G,2 F,2 | B,,2 G,,2 C,4 | %10
 C,2 D,E, F,2 B,,2 | C,2 C,2 F,,4 |] %12

